X: 47
T: Reel du Pendu
M:4/4
R:reel
L:1/8
Z:added by Alf 
K:G
|:DEGA B2B2|BcBA B2B2|DEGA B2B2|ABAF G2G2:|
|:A/2A/2AA2 A/2A/2AA2|A/2A/2AB2 c2B2|A/2A/2AB2 c2B2|A2F2 G4:|
|:DB,CD ECDE|DCB,G, A,2A,2|DB,CD ECDE|DCB,A, G,2G,2:|
|:z4 B2B2|BcBA Bz3|z4 B2B2|ABAF G z3:|
